static/assets/images/products/kubeshield/kubeshield-enterprise-logo.svg

<svg width="180" height="46" viewBox="0 0 180 46" fill="none" xmlns="http://www.w3.org/2000/svg">
<g clip-path="url(#clip0)">
<path d="M42.1615 25.2991L35.7174 15.9831V25.3027H31.1147V5.16321H35.7174V13.9148L41.8739 5.16321H47.1088L40.3218 14.9722L47.4017 25.2991H42.1615Z" fill="#2516C7"/>
<path d="M62.0029 10.9161V25.2992H57.6896V23.9471C56.9127 25.0188 55.4731 25.701 53.5817 25.701C50.6758 25.701 48.2021 23.631 48.2021 19.7481V10.9161H52.5101V19.1141C52.5101 20.9001 53.6317 21.7324 55.0106 21.7324C56.5948 21.7324 57.6896 20.8126 57.6896 18.7694V10.9108L62.0029 10.9161Z" fill="#2516C7"/>
<path d="M80.6364 18.1067C80.6364 22.3932 77.5305 25.701 73.7619 25.701C71.8348 25.701 70.4256 25.0419 69.4754 23.9471V25.2991H65.1621V5.16321H69.4754V12.2681C70.4256 11.175 71.8348 10.5124 73.7619 10.5124C77.5305 10.5124 80.6364 13.822 80.6364 18.1067ZM76.3231 18.1067C76.3231 15.9509 74.8836 14.5989 72.8993 14.5989C70.915 14.5989 69.4754 15.9509 69.4754 18.1067C69.4754 20.2625 70.915 21.6181 72.8993 21.6181C74.8836 21.6181 76.3231 20.2696 76.3231 18.1067Z" fill="#2516C7"/>
<path d="M90.3831 21.8485C91.5619 21.8485 92.5692 21.3877 93.1443 20.7554L96.5968 22.7397C95.1876 24.6955 93.0586 25.701 90.326 25.701C85.4072 25.701 82.3584 22.395 82.3584 18.1067C82.3584 13.8184 85.4643 10.5125 90.0098 10.5125C94.2088 10.5125 97.3166 13.7648 97.3166 18.1067C97.3166 18.6876 97.2568 19.267 97.1379 19.8356H86.9307C87.4772 21.3288 88.8007 21.8485 90.3831 21.8485ZM93.03 16.6136C92.5692 14.9436 91.2744 14.34 89.9813 14.34C88.3417 14.34 87.2486 15.1455 86.845 16.6136H93.03Z" fill="#2516C7"/>
<path d="M98.8027 20.725L102.77 18.4246C103.484 20.0927 104.734 21.2162 106.997 21.2162C109.183 21.2162 109.73 20.3517 109.73 19.5748C109.73 18.3371 108.58 17.8495 105.559 17.0154C102.568 16.1813 99.6333 14.7417 99.6333 10.8875C99.6333 7.00458 102.912 4.75952 106.393 4.75952C109.701 4.75952 112.287 6.34196 113.757 9.30501L109.878 11.5787C109.187 10.1391 108.238 9.25679 106.397 9.25679C104.968 9.25679 104.239 9.97121 104.239 10.7803C104.239 11.7001 104.729 12.3324 107.865 13.2808C110.914 14.2006 114.336 15.2651 114.336 19.5319C114.336 23.4148 111.23 25.7152 106.858 25.7152C102.628 25.7009 99.9244 23.6881 98.8027 20.725Z" fill="#2516C7"/>
<path d="M130.296 16.4689V25.2991H125.988V17.1012C125.988 15.3151 124.866 14.4828 123.487 14.4828C121.905 14.4828 120.808 15.4044 120.808 17.4476V25.3063H116.488V5.16321H120.808V12.2681C121.585 11.1965 123.023 10.5124 124.916 10.5124C127.822 10.5124 130.296 12.5896 130.296 16.4689Z" fill="#2516C7"/>
<path d="M132.821 7.06181C132.821 6.54961 132.973 6.0489 133.258 5.62302C133.542 5.19713 133.947 4.8652 134.42 4.66918C134.893 4.47317 135.414 4.42188 135.916 4.52181C136.419 4.62174 136.88 4.86839 137.242 5.23058C137.604 5.59276 137.851 6.05421 137.951 6.55658C138.051 7.05894 138 7.57966 137.804 8.05288C137.608 8.5261 137.276 8.93057 136.85 9.21513C136.424 9.4997 135.923 9.65158 135.411 9.65158C134.726 9.64507 134.071 9.37012 133.587 8.88585C133.103 8.40158 132.828 7.74664 132.821 7.06181Z" fill="#E86830"/>
<path d="M137.569 10.916H133.253V25.2991H137.569V10.916Z" fill="#2516C7"/>
<path d="M148.035 21.8485C149.216 21.8485 150.221 21.3877 150.798 20.7554L154.249 22.7397C152.839 24.6955 150.71 25.701 147.98 25.701C143.059 25.701 140.01 22.395 140.01 18.1067C140.01 13.8184 143.116 10.5125 147.662 10.5125C151.862 10.5125 154.968 13.7648 154.968 18.1067C154.969 18.6877 154.91 19.2671 154.79 19.8356H144.584C145.131 21.3288 146.454 21.8485 148.035 21.8485ZM150.682 16.6136C150.221 14.9436 148.928 14.34 147.633 14.34C145.994 14.34 144.9 15.1455 144.499 16.6136H150.682Z" fill="#2516C7"/>
<path d="M157.408 4.30054H161.722V25.2991H157.408V4.30054Z" fill="#2516C7"/>
<path d="M179.641 5.16321V25.2991H175.326V23.9471C174.375 25.0419 172.966 25.701 171.039 25.701C167.27 25.701 164.165 22.395 164.165 18.1067C164.165 13.8184 167.27 10.5124 171.039 10.5124C172.966 10.5124 174.375 11.175 175.326 12.2681V5.16321H179.641ZM175.326 18.1067C175.326 15.9509 173.897 14.5989 171.903 14.5989C169.91 14.5989 168.48 15.9509 168.48 18.1067C168.48 20.2625 169.908 21.6181 171.903 21.6181C173.899 21.6181 175.326 20.2696 175.326 18.1067Z" fill="#2516C7"/>
<path d="M12.5828 30C12.1108 29.8087 11.664 29.5603 11.2522 29.2606C8.35882 27.3888 6.11733 24.8919 4.34021 21.9664C2.1147 18.2909 0.707491 14.1789 0.214438 9.91053C-0.011986 8.05833 -0.0592389 6.18861 0.0733391 4.32734C0.0911996 4.0898 0.166216 4.03086 0.396616 4.038C1.65935 4.07194 2.9078 4.0005 4.11159 3.56292C5.06354 3.18628 5.95904 2.68023 6.77281 2.05906C7.7462 1.36429 8.73746 0.705238 9.90018 0.360531C10.7683 0.0985147 11.6728 -0.0220971 12.5792 0.00332135C12.5792 0.612364 12.5792 1.21962 12.5792 1.82866C11.7692 1.83738 10.965 1.9668 10.1931 2.21266C9.19647 2.56987 8.35882 3.19856 7.51402 3.80582C5.87621 4.98104 4.08302 5.7276 2.05764 5.8562C1.81474 5.87049 1.85403 6.01337 1.85224 6.15626C1.83749 7.97912 2.0026 9.79898 2.34519 11.5894C3.15963 15.7902 4.74564 19.6588 7.34613 23.0826C8.76881 25.0094 10.5469 26.6463 12.5846 27.905C12.5775 28.6039 12.5769 29.3022 12.5828 30Z" fill="#2516C7"/>
<path d="M12.583 30C12.583 29.301 12.583 28.6021 12.583 27.9032C12.6383 27.8746 12.6973 27.8478 12.7509 27.8139C14.6327 26.6121 16.2896 25.09 17.6464 23.3166C20.0969 20.1696 21.6722 16.6118 22.5795 12.745C23.0776 10.5854 23.3275 8.37607 23.3243 6.15982C23.3243 5.94549 23.2725 5.86691 23.0457 5.85262C22.6742 5.82474 22.3045 5.77645 21.9383 5.70795C20.238 5.41861 18.7538 4.63632 17.3946 3.61827C15.9658 2.54664 14.4226 1.79293 12.5723 1.83222C12.5723 1.22318 12.5723 0.615926 12.5723 0.00688367C14.2348 -0.0519796 15.8749 0.404671 17.2678 1.31427C17.8572 1.69827 18.4376 2.09656 19.011 2.50378C20.5051 3.55326 22.2954 4.09827 24.1208 4.05942H24.4084C25.0657 4.05942 25.0746 4.05943 25.105 4.7024C25.4193 11.3965 23.7815 17.562 20.0504 23.1398C18.3784 25.6911 16.1717 27.8485 13.5832 29.4624C13.2752 29.6853 12.9388 29.8661 12.583 30Z" fill="#2516C7"/>
<path d="M10.9808 24.3615C9.63649 23.1137 8.47698 21.6805 7.53734 20.1053C5.53105 16.8115 4.2777 13.1149 3.86701 9.28009C3.80807 8.76214 3.7795 8.24061 3.73663 7.72087C3.72592 7.58513 3.72592 7.48869 3.91524 7.45118C4.9038 7.23792 5.86111 6.89941 6.76398 6.44385C8.23232 8.1987 9.44625 10.1516 10.37 12.2449C11.906 15.7731 12.1994 19.718 11.2023 23.4345C11.1148 23.7399 10.9791 24.0364 10.9808 24.3615Z" fill="#2516C7"/>
<path d="M17.7018 6.05627C18.8057 6.70449 20.0044 7.17576 21.2542 7.45296C21.4918 7.50118 21.4328 7.66014 21.4203 7.7941C21.3445 9.33798 21.1263 10.8716 20.7684 12.3753C19.8557 16.2403 18.2322 19.7606 15.6621 22.8148C15.2135 23.3699 14.7175 23.885 14.1797 24.3543C14.1799 24.2467 14.2136 24.1418 14.2761 24.0543C15.0715 22.7085 15.7297 21.2862 16.2408 19.8088C16.8479 18.0781 17.277 16.2899 17.5214 14.4721C17.7134 13.1709 17.8173 11.8581 17.8322 10.5428C17.8304 9.04969 17.8572 7.54941 17.7018 6.05627Z" fill="#2516C7"/>
<path d="M10.9805 24.3615C10.9805 24.0364 11.1145 23.7399 11.1966 23.4345C12.1937 19.718 11.9003 15.7731 10.3643 12.2449C9.44057 10.1516 8.22664 8.19869 6.7583 6.44384C7.49203 6.03478 8.20058 5.58209 8.88013 5.08823C9.05873 4.95428 9.14089 4.96499 9.26413 5.15967C10.0116 6.31253 10.6542 7.53014 11.1841 8.79785C12.7166 12.495 13.2041 16.3439 12.8523 20.3161C12.713 21.8661 12.4544 23.4031 12.0789 24.9134C12.0662 25.0247 12.0243 25.1307 11.9575 25.2206C11.6082 24.9622 11.2814 24.6748 10.9805 24.3615Z" fill="#E86830"/>
<path d="M17.7014 6.05622C17.8568 7.54935 17.83 9.04963 17.8317 10.5481C17.8169 11.8634 17.713 13.1762 17.521 14.4774C17.2766 16.2952 16.8475 18.0834 16.2404 19.8141C15.7293 21.2915 15.0711 22.7138 14.2757 24.0596C14.2132 24.1472 14.1795 24.252 14.1793 24.3596C14.1633 24.3594 14.1474 24.3624 14.1325 24.3684C14.1177 24.3744 14.1042 24.3833 14.0929 24.3947C14.0815 24.406 14.0726 24.4195 14.0666 24.4343C14.0606 24.4492 14.0576 24.4651 14.0578 24.4811C13.7512 24.8007 13.4111 25.0863 13.0434 25.333C13.0308 25.3181 13.0164 25.3049 13.0005 25.2937C13.9043 23.4938 14.6092 21.6008 15.1027 19.648C15.7342 17.0671 15.975 14.4061 15.8171 11.7537C15.6589 9.14613 15.1611 6.57035 14.3365 4.09156C14.3275 4.0612 14.324 4.02905 14.3043 3.92725C15.5831 4.44877 16.5726 5.36859 17.7014 6.05622Z" fill="#E86830"/>
<path d="M14.0508 24.4793C14.0506 24.4632 14.0535 24.4473 14.0595 24.4325C14.0656 24.4176 14.0745 24.4042 14.0858 24.3928C14.0972 24.3815 14.1106 24.3726 14.1255 24.3666C14.1403 24.3605 14.1562 24.3576 14.1722 24.3578L14.0508 24.4793Z" fill="#326CE5"/>
<path d="M13.0363 25.3313L12.981 25.3652C12.981 25.3402 12.9899 25.317 12.9935 25.292C13.0094 25.3032 13.0238 25.3164 13.0363 25.3313Z" fill="#326CE5"/>
<path d="M4.98633 39.9395H1.48242V42.5645H5.57812V43.748H0V35.2168H5.53711V36.4121H1.48242V38.7676H4.98633V39.9395Z" fill="#FC6011"/>
<path d="M21.9688 37.4082L22.0098 38.1406C22.4785 37.5742 23.0938 37.291 23.8555 37.291C25.1758 37.291 25.8477 38.0469 25.8711 39.5586V43.748H24.4473V39.6406C24.4473 39.2383 24.3594 38.9414 24.1836 38.75C24.0117 38.5547 23.7285 38.457 23.334 38.457C22.7598 38.457 22.332 38.7168 22.0508 39.2363V43.748H20.627V37.4082H21.9688Z" fill="#FC6011"/>
<path d="M43.1113 35.8672V37.4082H44.2305V38.4629H43.1113V42.002C43.1113 42.2441 43.1582 42.4199 43.252 42.5293C43.3496 42.6348 43.5215 42.6875 43.7676 42.6875C43.9316 42.6875 44.0977 42.668 44.2656 42.6289V43.7305C43.9414 43.8203 43.6289 43.8652 43.3281 43.8652C42.2344 43.8652 41.6875 43.2617 41.6875 42.0547V38.4629H40.6445V37.4082H41.6875V35.8672H43.1113Z" fill="#FC6011"/>
<path d="M62.1152 43.8652C61.2129 43.8652 60.4805 43.582 59.918 43.0156C59.3594 42.4453 59.0801 41.6875 59.0801 40.7422V40.5664C59.0801 39.9336 59.2012 39.3691 59.4434 38.873C59.6895 38.373 60.0332 37.9844 60.4746 37.707C60.916 37.4297 61.4082 37.291 61.9512 37.291C62.8145 37.291 63.4805 37.5664 63.9492 38.1172C64.4219 38.668 64.6582 39.4473 64.6582 40.4551V41.0293H60.5156C60.5586 41.5527 60.7324 41.9668 61.0371 42.2715C61.3457 42.5762 61.7324 42.7285 62.1973 42.7285C62.8496 42.7285 63.3809 42.4648 63.791 41.9375L64.5586 42.6699C64.3047 43.0488 63.9648 43.3438 63.5391 43.5547C63.1172 43.7617 62.6426 43.8652 62.1152 43.8652ZM61.9453 38.4336C61.5547 38.4336 61.2383 38.5703 60.9961 38.8438C60.7578 39.1172 60.6055 39.498 60.5391 39.9863H63.252V39.8809C63.2207 39.4043 63.0938 39.0449 62.8711 38.8027C62.6484 38.5566 62.3398 38.4336 61.9453 38.4336Z" fill="#FC6011"/>
<path d="M83.0879 38.709C82.9004 38.6777 82.707 38.6621 82.5078 38.6621C81.8555 38.6621 81.416 38.9121 81.1895 39.4121V43.748H79.7656V37.4082H81.125L81.1602 38.1172C81.5039 37.5664 81.9805 37.291 82.5898 37.291C82.793 37.291 82.9609 37.3184 83.0938 37.373L83.0879 38.709Z" fill="#FC6011"/>
<path d="M103.539 40.6426C103.539 41.623 103.316 42.4062 102.871 42.9922C102.426 43.5742 101.828 43.8652 101.078 43.8652C100.383 43.8652 99.8262 43.6367 99.4082 43.1797V46.1855H97.9844V37.4082H99.2969L99.3555 38.0527C99.7734 37.5449 100.342 37.291 101.061 37.291C101.834 37.291 102.439 37.5801 102.877 38.1582C103.318 38.7324 103.539 39.5312 103.539 40.5547V40.6426ZM102.121 40.5195C102.121 39.8867 101.994 39.3848 101.74 39.0137C101.49 38.6426 101.131 38.457 100.662 38.457C100.08 38.457 99.6621 38.6973 99.4082 39.1777V41.9902C99.666 42.4824 100.088 42.7285 100.674 42.7285C101.127 42.7285 101.48 42.5469 101.734 42.1836C101.992 41.8164 102.121 41.2617 102.121 40.5195Z" fill="#FC6011"/>
<path d="M122.068 38.709C121.881 38.6777 121.688 38.6621 121.488 38.6621C120.836 38.6621 120.396 38.9121 120.17 39.4121V43.748H118.746V37.4082H120.105L120.141 38.1172C120.484 37.5664 120.961 37.291 121.57 37.291C121.773 37.291 121.941 37.3184 122.074 37.373L122.068 38.709Z" fill="#FC6011"/>
<path d="M138.482 43.748H137.059V37.4082H138.482V43.748ZM136.971 35.7617C136.971 35.543 137.039 35.3613 137.176 35.2168C137.316 35.0723 137.516 35 137.773 35C138.031 35 138.23 35.0723 138.371 35.2168C138.512 35.3613 138.582 35.543 138.582 35.7617C138.582 35.9766 138.512 36.1562 138.371 36.3008C138.23 36.4414 138.031 36.5117 137.773 36.5117C137.516 36.5117 137.316 36.4414 137.176 36.3008C137.039 36.1562 136.971 35.9766 136.971 35.7617Z" fill="#FC6011"/>
<path d="M157.592 42.0254C157.592 41.7715 157.486 41.5781 157.275 41.4453C157.068 41.3125 156.723 41.1953 156.238 41.0938C155.754 40.9922 155.35 40.8633 155.025 40.707C154.314 40.3633 153.959 39.8652 153.959 39.2129C153.959 38.666 154.189 38.209 154.65 37.8418C155.111 37.4746 155.697 37.291 156.408 37.291C157.166 37.291 157.777 37.4785 158.242 37.8535C158.711 38.2285 158.945 38.7148 158.945 39.3125H157.521C157.521 39.0391 157.42 38.8125 157.217 38.6328C157.014 38.4492 156.744 38.3574 156.408 38.3574C156.096 38.3574 155.84 38.4297 155.641 38.5742C155.445 38.7188 155.348 38.9121 155.348 39.1543C155.348 39.373 155.439 39.543 155.623 39.6641C155.807 39.7852 156.178 39.9082 156.736 40.0332C157.295 40.1543 157.732 40.3008 158.049 40.4727C158.369 40.6406 158.605 40.8438 158.758 41.082C158.914 41.3203 158.992 41.6094 158.992 41.9492C158.992 42.5195 158.756 42.9824 158.283 43.3379C157.811 43.6895 157.191 43.8652 156.426 43.8652C155.906 43.8652 155.443 43.7715 155.037 43.584C154.631 43.3965 154.314 43.1387 154.088 42.8105C153.861 42.4824 153.748 42.1289 153.748 41.75H155.131C155.15 42.0859 155.277 42.3457 155.512 42.5293C155.746 42.709 156.057 42.7988 156.443 42.7988C156.818 42.7988 157.104 42.7285 157.299 42.5879C157.494 42.4434 157.592 42.2559 157.592 42.0254Z" fill="#FC6011"/>
<path d="M177.029 43.8652C176.127 43.8652 175.395 43.582 174.832 43.0156C174.273 42.4453 173.994 41.6875 173.994 40.7422V40.5664C173.994 39.9336 174.115 39.3691 174.357 38.873C174.604 38.373 174.947 37.9844 175.389 37.707C175.83 37.4297 176.322 37.291 176.865 37.291C177.729 37.291 178.395 37.5664 178.863 38.1172C179.336 38.668 179.572 39.4473 179.572 40.4551V41.0293H175.43C175.473 41.5527 175.646 41.9668 175.951 42.2715C176.26 42.5762 176.646 42.7285 177.111 42.7285C177.764 42.7285 178.295 42.4648 178.705 41.9375L179.473 42.6699C179.219 43.0488 178.879 43.3438 178.453 43.5547C178.031 43.7617 177.557 43.8652 177.029 43.8652ZM176.859 38.4336C176.469 38.4336 176.152 38.5703 175.91 38.8438C175.672 39.1172 175.52 39.498 175.453 39.9863H178.166V39.8809C178.135 39.4043 178.008 39.0449 177.785 38.8027C177.562 38.5566 177.254 38.4336 176.859 38.4336Z" fill="#FC6011"/>
</g>
<defs>
<clipPath id="clip0">
<rect width="180" height="46" fill="white"/>
</clipPath>
</defs>
</svg>

<svg xmlns="http://www.w3.org/2000/svg" width="180" height="46" fill="none" xmlns:v="https://vecta.io/nano"><g clip-path="url(#A)"><g fill="#2516c7"><path d="M42.162 25.299l-6.444-9.316v9.32h-4.603V5.163h4.603v8.752l6.157-8.752h5.235l-6.787 9.809 7.08 10.327h-5.24zm19.841-14.383v14.383H57.69v-1.352c-.777 1.072-2.216 1.754-4.108 1.754-2.906 0-5.38-2.07-5.38-5.953v-8.832h4.308v8.198c0 1.786 1.122 2.618 2.5 2.618 1.584 0 2.679-.92 2.679-2.963V10.91l4.313.005zm18.633 7.191c0 4.287-3.106 7.594-6.874 7.594-1.927 0-3.336-.659-4.287-1.754v1.352h-4.313V5.163h4.313v7.105c.95-1.093 2.359-1.756 4.287-1.756 3.769 0 6.874 3.31 6.874 7.594zm-4.313 0c0-2.156-1.439-3.508-3.424-3.508s-3.424 1.352-3.424 3.508 1.44 3.511 3.424 3.511 3.424-1.348 3.424-3.511zm14.06 3.742c1.179 0 2.186-.461 2.761-1.093l3.453 1.984c-1.409 1.956-3.538 2.961-6.271 2.961-4.919 0-7.968-3.306-7.968-7.594s3.106-7.594 7.651-7.594c4.199 0 7.307 3.252 7.307 7.594 0 .581-.06 1.16-.179 1.729H86.931c.546 1.493 1.87 2.013 3.452 2.013zm2.647-5.235c-.461-1.67-1.756-2.274-3.049-2.274-1.64 0-2.733.806-3.136 2.274h6.185zm5.773 4.111l3.967-2.3c.714 1.668 1.964 2.792 4.227 2.792 2.186 0 2.733-.864 2.733-1.641 0-1.238-1.15-1.725-4.171-2.559-2.991-.834-5.926-2.274-5.926-6.128 0-3.883 3.279-6.128 6.76-6.128 3.308 0 5.894 1.582 7.364 4.545l-3.879 2.274c-.691-1.44-1.64-2.322-3.481-2.322-1.429 0-2.158.714-2.158 1.524 0 .92.49 1.552 3.626 2.5 3.049.92 6.471 1.984 6.471 6.251 0 3.883-3.106 6.183-7.478 6.183-4.23-.014-6.934-2.027-8.055-4.99zm31.493-4.256v8.83h-4.308v-8.198c0-1.786-1.122-2.618-2.501-2.618-1.582 0-2.679.922-2.679 2.965v7.859h-4.32V5.163h4.32v7.105c.777-1.072 2.215-1.756 4.108-1.756 2.906 0 5.38 2.077 5.38 5.957z"/></g><path d="M132.821 7.062c0-.512.152-1.013.437-1.439s.689-.758 1.162-.954a2.59 2.59 0 0 1 1.496-.147c.503.1.964.347 1.326.709a2.59 2.59 0 0 1 .562 2.822 2.59 2.59 0 0 1-2.393 1.599c-.685-.007-1.34-.281-1.824-.766a2.62 2.62 0 0 1-.766-1.824z" fill="#e86830"/><g fill="#2516c7"><path d="M137.569 10.916h-4.316v14.383h4.316V10.916zm10.466 10.933c1.181 0 2.186-.461 2.763-1.093l3.451 1.984c-1.41 1.956-3.539 2.961-6.269 2.961-4.921 0-7.97-3.306-7.97-7.594s3.106-7.594 7.652-7.594c4.2 0 7.306 3.252 7.306 7.594a8.3 8.3 0 0 1-.178 1.729h-10.206c.547 1.493 1.87 2.013 3.451 2.013zm2.647-5.235c-.461-1.67-1.754-2.274-3.049-2.274-1.639 0-2.733.806-3.134 2.274h6.183zm6.726-12.313h4.314V25.3h-4.314V4.301zm22.233.862v20.136h-4.315v-1.352c-.951 1.095-2.36 1.754-4.287 1.754-3.769 0-6.874-3.306-6.874-7.594s3.105-7.594 6.874-7.594c1.927 0 3.336.663 4.287 1.756V5.163h4.315zm-4.315 12.943c0-2.156-1.429-3.508-3.423-3.508s-3.423 1.352-3.423 3.508 1.428 3.511 3.423 3.511 3.423-1.348 3.423-3.511zM12.583 30c-.472-.191-.919-.44-1.331-.739-2.893-1.872-5.135-4.369-6.912-7.294A29.9 29.9 0 0 1 .214 9.911a29.02 29.02 0 0 1-.141-5.583c.018-.238.093-.296.323-.289 1.263.034 2.511-.038 3.715-.475A11.14 11.14 0 0 0 6.772 2.06C7.746 1.364 8.737.705 9.9.361a8.45 8.45 0 0 1 2.679-.357v1.825a8.15 8.15 0 0 0-2.386.384c-.997.357-1.834.986-2.679 1.593-1.638 1.175-3.431 1.922-5.456 2.05-.243.014-.204.157-.205.3a27.66 27.66 0 0 0 .493 5.433c.814 4.201 2.4 8.069 5.001 11.493a18.78 18.78 0 0 0 5.238 4.822L12.583 30z"/><path d="M12.583 30v-2.097l.168-.089c1.882-1.202 3.539-2.724 4.896-4.497 2.451-3.147 4.026-6.705 4.933-10.572.498-2.16.748-4.369.745-6.585 0-.214-.052-.293-.279-.307-.372-.028-.741-.076-1.107-.145-1.7-.289-3.185-1.072-4.544-2.09-1.429-1.072-2.972-1.825-4.822-1.786V.007a8.07 8.07 0 0 1 4.696 1.307 52.65 52.65 0 0 1 1.743 1.19 8.58 8.58 0 0 0 5.11 1.556h.288c.657 0 .666 0 .697.643.314 6.694-1.323 12.86-5.055 18.437-1.672 2.551-3.879 4.709-6.467 6.323a4.27 4.27 0 0 1-1 .538zm-1.602-5.638a19.29 19.29 0 0 1-3.443-4.256 26.16 26.16 0 0 1-3.67-10.825c-.059-.518-.088-1.039-.13-1.559-.011-.136-.011-.232.179-.27a11.89 11.89 0 0 0 2.849-1.007 24.4 24.4 0 0 1 3.606 5.801 17 17 0 0 1 .832 11.19c-.087.305-.223.602-.221.927zm6.721-18.306c1.104.648 2.303 1.119 3.552 1.397.238.048.179.207.166.341a25.1 25.1 0 0 1-.652 4.581c-.913 3.865-2.536 7.385-5.106 10.44a12.39 12.39 0 0 1-1.482 1.539.52.52 0 0 1 .096-.3 23.38 23.38 0 0 0 1.965-4.245 27.04 27.04 0 0 0 1.281-5.337c.192-1.301.296-2.614.311-3.929-.002-1.493.025-2.993-.13-4.487z"/></g><g fill="#e86830"><path d="M10.981 24.362c0-.325.134-.622.216-.927a17 17 0 0 0-.832-11.19 24.4 24.4 0 0 0-3.606-5.801A21.02 21.02 0 0 0 8.88 5.088c.179-.134.261-.123.384.071.747 1.153 1.39 2.37 1.92 3.638 1.532 3.697 2.02 7.546 1.668 11.518a30.29 30.29 0 0 1-.773 4.597c-.013.111-.055.217-.121.307a7.74 7.74 0 0 1-.977-.859zm6.72-18.306c.155 1.493.129 2.993.13 4.492-.015 1.315-.119 2.628-.311 3.929a26.97 26.97 0 0 1-1.281 5.337 23.32 23.32 0 0 1-1.965 4.246.52.52 0 0 0-.096.3c-.016 0-.032.003-.047.009s-.028.015-.04.026-.02.025-.026.04-.009.031-.009.047c-.307.32-.647.605-1.014.852-.013-.015-.027-.028-.043-.039a27.71 27.71 0 0 0 2.102-5.646 26.57 26.57 0 0 0 .714-7.894 30.01 30.01 0 0 0-1.481-7.662c-.009-.03-.012-.063-.032-.164 1.279.522 2.268 1.441 3.397 2.129z"/></g><g fill="#326ce5"><path d="M14.051 24.479a.12.12 0 0 1 .009-.047c.006-.015.015-.028.026-.04a.12.12 0 0 1 .04-.026c.015-.006.031-.009.047-.009l-.121.121zm-1.015.852l-.055.034c0-.025.009-.048.012-.073.016.011.03.024.043.039z"/></g><g fill="#fc6011"><path d="M4.986 39.94H1.482v2.625h4.096v1.183H0v-8.531h5.537v1.195H1.482v2.355h3.504v1.172zm16.983-2.532l.041.732c.469-.566 1.084-.85 1.846-.85 1.32 0 1.992.756 2.016 2.268v4.189h-1.424V39.64c0-.402-.088-.699-.264-.891s-.455-.293-.85-.293c-.574 0-1.002.26-1.283.779v4.512h-1.424v-6.34h1.342zm21.142-1.541v1.541h1.119v1.055h-1.119v3.539c0 .242.047.418.141.527s.27.158.516.158a2.19 2.19 0 0 0 .498-.059v1.102a3.5 3.5 0 0 1-.937.135c-1.094 0-1.641-.604-1.641-1.811v-3.592h-1.043v-1.055h1.043v-1.541h1.424zm19.004 7.998c-.902 0-1.635-.283-2.197-.85s-.838-1.328-.838-2.273v-.176c0-.633.121-1.197.363-1.693a2.8 2.8 0 0 1 1.031-1.166 2.72 2.72 0 0 1 1.477-.416c.863 0 1.529.275 1.998.826s.709 1.33.709 2.338v.574h-4.143c.043.523.217.938.522 1.242a1.58 1.58 0 0 0 1.16.457c.652 0 1.184-.264 1.594-.791l.768.732a2.58 2.58 0 0 1-1.02.885 3.19 3.19 0 0 1-1.424.311zm-.17-5.432c-.391 0-.707.137-.949.41s-.391.654-.457 1.142h2.713v-.105c-.031-.477-.158-.836-.381-1.078s-.531-.369-.926-.369zm21.143.276a3.52 3.52 0 0 0-.58-.047c-.652 0-1.092.25-1.318.75v4.336h-1.424v-6.34h1.359l.035.709c.344-.551.82-.826 1.43-.826.203 0 .371.027.504.082l-.006 1.336zm20.451 1.934c0 .98-.223 1.764-.668 2.35a2.14 2.14 0 0 1-1.793.873c-.695 0-1.252-.229-1.67-.686v3.006h-1.424v-8.777h1.313l.059.645c.418-.508.986-.762 1.706-.762.773 0 1.378.289 1.816.867s.662 1.373.662 2.396v.088zm-1.418-.123c0-.633-.127-1.135-.381-1.506s-.609-.557-1.078-.557c-.582 0-1 .24-1.254.721v2.813c.258.492.68.738 1.266.738a1.22 1.22 0 0 0 1.06-.545c.258-.367.387-.922.387-1.664zm19.947-1.811a3.54 3.54 0 0 0-.58-.047c-.652 0-1.092.25-1.318.75v4.336h-1.424v-6.34h1.359l.036.709c.343-.551.82-.826 1.429-.826.203 0 .371.027.504.082l-.006 1.336zm16.414 5.039h-1.423v-6.34h1.423v6.34zm-1.511-7.986a.76.76 0 0 1 .205-.545c.14-.145.34-.217.597-.217s.457.072.598.217.211.326.211.545a.74.74 0 0 1-.211.539c-.141.141-.34.211-.598.211s-.457-.07-.597-.211-.205-.324-.205-.539zm20.621 6.263c0-.254-.106-.447-.317-.58s-.552-.25-1.037-.352-.888-.23-1.213-.387c-.711-.344-1.066-.842-1.066-1.494 0-.547.23-1.004.691-1.371s1.047-.551 1.758-.551c.758 0 1.369.188 1.834.563a1.78 1.78 0 0 1 .703 1.459h-1.424a.87.87 0 0 0-.304-.68c-.203-.184-.473-.275-.809-.275-.312 0-.568.072-.767.217s-.293.338-.293.58c0 .219.091.389.275.51s.555.244 1.113.369.996.268 1.313.44.556.371.709.609.234.527.234.867c0 .57-.236 1.033-.709 1.389s-1.092.527-1.857.527c-.52 0-.983-.094-1.389-.281s-.723-.445-.949-.774-.34-.682-.34-1.06h1.383c.019.336.146.596.381.779s.545.27.931.27c.375 0 .661-.07.856-.211a.67.67 0 0 0 .293-.562zm19.437 1.84c-.902 0-1.634-.283-2.197-.85s-.838-1.328-.838-2.273v-.176c0-.633.121-1.197.363-1.693.247-.5.59-.889 1.032-1.166a2.72 2.72 0 0 1 1.476-.416c.864 0 1.53.275 1.998.826.473.551.709 1.33.709 2.338v.574h-4.142c.043.523.216.938.521 1.242a1.58 1.58 0 0 0 1.16.457c.653 0 1.184-.264 1.594-.791l.768.732a2.58 2.58 0 0 1-1.02.885c-.422.207-.896.311-1.424.311zm-.17-5.432c-.39 0-.707.137-.949.41s-.39.654-.457 1.142h2.713v-.105c-.031-.477-.158-.836-.381-1.078s-.531-.369-.926-.369z"/></g></g><defs><clipPath id="A"><path fill="#fff" d="M0 0h180v46H0z"/></clipPath></defs></svg>
